v/0.4.11/design-resources/icons/wf_doctype-icons/file-project.svg

<?xml version="1.0" encoding="utf-8"?>
<!-- Generated by IcoMoon.io -->
<!DOCTYPE svg PUBLIC "-//W3C//DTD SVG 1.1//EN" "http://www.w3.org/Graphics/SVG/1.1/DTD/svg11.dtd">
<svg version="1.1" xmlns="http://www.w3.org/2000/svg" xmlns:xlink="http://www.w3.org/1999/xlink" width="512" height="512" viewBox="0 0 512 512">
<g>
</g>
	<path d="M459.429 192l4.571-64h-20.571l4.571-64h-384l4.571 64h-20.571l4.571 64h-20.571l16 288h416l16-288h-20.571zM82.367 160h347.265l-2.286 32h-43.346l-32 64h-192l-32-64h-43.347l-2.286-32zM98.367 96h315.266l-2.286 32h-310.694l-2.286-32z" fill="#595959" />
</svg>

<svg xmlns="http://www.w3.org/2000/svg" width="512" height="512" viewBox="0 0 512 512"><path stroke="#449FDB" d="M0 0"/><path d="M459.43 192l4.57-64h-20.57L448 64H64l4.57 64H48l4.57 64H32l16 288h416l16-288h-20.57zM82.366 160H429.63l-2.285 32H384l-32 64H160l-32-64H84.653l-2.286-32zm16-64h315.266l-2.286 32H100.653l-2.286-32z" fill="#595959"/></svg>
